X: 23752
T: Little Brother, Big Sisters
R: slip jig
M: 9/8
K: Eminor
|:B2e B2A Bef|g2e f2d edB|B2e B2A BGE|A2G F2G ABc|
B2e B2A Bef|g2e f2d edB|A3 A2G F2G|F2E DEF FGA:|
|:B3 B2G cde|d2G F2G ABc|B3 B2G cBA|G2F EFG ABc|
B3 B2G cde|d2B e2f gfe|f3 e2d edB|A2F DEF FGA:|

